X: 65
T:Morning Cheer (#261)
M:4/4
L:1/8
S:Rice-Walsh manuscript
R:Reel
K:G
A2 BA A2 Bd|(3efg dg ef g2|G2 BG G2 BG|(3ABc BA GE E2|
A2 BA A2 Bd|(3efg dg efgf|afgf efga|gedB BA A2||
eaaa agbg|agbg agef|dggg gfaf|gfaf gedf|
eaaa agbg|agbg agef|gfgf efga|gedB BA A2||
%
% This is a variant of "Jim Moore's Fancy" in O'Neill's Dance
% Music of Ireland 1907.

